file/ptt.svg

<svg clip-rule="evenodd" fill-rule="evenodd" stroke-linejoin="round" stroke-miterlimit="1.41421" viewBox="0 0 560 400" xmlns="http://www.w3.org/2000/svg"><g fill-rule="nonzero" transform="matrix(.893432 0 0 .893432 179.998 65.9852)"><path d="m138.174 0c-13.306 32.101-20.926 51.298-18.378 78.63 2.699 29.156 22.561 52.539 40.746 72.073 14.651 15.76 23.527 25.709 27.607 43.822 2.818 12.521 6.07 39.113-12.77 64.646-22.53 30.553-58.925 31.637-58.925 31.637v9.192s43.354-1.716 72.872-28.516c20.385-18.516 27.621-34.64 32.957-59.57 4.537-21.199-.896-51.403-14.129-74.615-7.415-13.026-15.576-23.895-23.359-32.954-15.384-17.926-26.424-29.876-36.195-44.176-9.068-13.233-14.693-24.444-14.693-36.058 0-11.211 4.537-23.155 4.537-23.155z" fill="#00aeef"/><path d="m85.686 0c13.3 32.101 20.914 51.298 18.366 78.63-2.705 29.156-22.543 52.539-40.746 72.073-14.663 15.76-23.521 25.709-27.607 43.822-2.813 12.521-6.059 39.113 12.764 64.646 22.555 30.553 58.937 31.637 58.937 31.637v9.192s-43.359-1.716-72.872-28.516c-20.396-18.516-27.621-34.64-32.957-59.57-4.525-21.199.907-51.403 14.123-74.615 7.434-13.026 15.582-23.895 23.341-32.954 15.425-17.927 26.435-29.877 36.224-44.177 9.056-13.233 14.681-24.444 14.681-36.058 0-11.211-4.52-23.155-4.52-23.155z" fill="#00aeef"/><path d="m126.095 120.051c6.334 10.375 22.361 29.994 35.354 42.47 13.341 12.818 21.526 30.964 21.526 50.947 0 39.225-31.809 71.045-71.04 71.045-39.255 0-71.069-31.821-71.069-71.045 0-19.625 7.969-37.386 20.823-50.241 6.226-6.244 25.156-25.778 35.812-43.176 11.412-18.504 14.435-34.733 14.435-34.733s2.842 16.187 14.159 34.733" fill="#1b1464"/><path d="m169.989 213.468c0 32.067-25.986 58.062-58.06 58.062-32.079 0-58.059-25.995-58.059-58.062 0-32.062 25.979-58.062 58.059-58.062 32.074 0 58.06 26 58.06 58.062" fill="#ed1d24"/></g></svg>

<?xml version="1.0" encoding="UTF-8" standalone="no"?>
<!DOCTYPE svg PUBLIC "-//W3C//DTD SVG 1.1//EN" "http://www.w3.org/Graphics/SVG/1.1/DTD/svg11.dtd">
<svg width="100%" height="100%" viewBox="0 0 560 400" version="1.1" xmlns="http://www.w3.org/2000/svg" xmlns:xlink="http://www.w3.org/1999/xlink" xml:space="preserve" xmlns:serif="http://www.serif.com/" style="fill-rule:evenodd;clip-rule:evenodd;stroke-linejoin:round;stroke-miterlimit:1.41421;">
    <g transform="matrix(0.893432,0,0,0.893432,179.998,65.9852)">
        <path d="M138.174,0C124.868,32.101 117.248,51.298 119.796,78.63C122.495,107.786 142.357,131.169 160.542,150.703C175.193,166.463 184.069,176.412 188.149,194.525C190.967,207.046 194.219,233.638 175.379,259.171C152.849,289.724 116.454,290.808 116.454,290.808L116.454,300C116.454,300 159.808,298.284 189.326,271.484C209.711,252.968 216.947,236.844 222.283,211.914C226.82,190.715 221.387,160.511 208.154,137.299C200.739,124.273 192.578,113.404 184.795,104.345C169.411,86.419 158.371,74.469 148.6,60.169C139.532,46.936 133.907,35.725 133.907,24.111C133.907,12.9 138.444,0.956 138.444,0.956L138.174,0Z" style="fill:rgb(0,174,239);fill-rule:nonzero;"/>
        <path d="M85.686,0C98.986,32.101 106.6,51.298 104.052,78.63C101.347,107.786 81.509,131.169 63.306,150.703C48.643,166.463 39.785,176.412 35.699,194.525C32.886,207.046 29.64,233.638 48.463,259.171C71.018,289.724 107.4,290.808 107.4,290.808L107.4,300C107.4,300 64.041,298.284 34.528,271.484C14.132,252.968 6.907,236.844 1.571,211.914C-2.954,190.715 2.478,160.511 15.694,137.299C23.128,124.273 31.276,113.404 39.035,104.345C54.46,86.418 65.47,74.468 75.259,60.168C84.315,46.935 89.94,35.724 89.94,24.11C89.94,12.899 85.42,0.955 85.42,0.955L85.686,0Z" style="fill:rgb(0,174,239);fill-rule:nonzero;"/>
        <path d="M126.095,120.051C132.429,130.426 148.456,150.045 161.449,162.521C174.79,175.339 182.975,193.485 182.975,213.468C182.975,252.693 151.166,284.513 111.935,284.513C72.68,284.513 40.866,252.692 40.866,213.468C40.866,193.843 48.835,176.082 61.689,163.227C67.915,156.983 86.845,137.449 97.501,120.051C108.913,101.547 111.936,85.318 111.936,85.318C111.936,85.318 114.778,101.505 126.095,120.051" style="fill:rgb(27,20,100);fill-rule:nonzero;"/>
        <path d="M169.989,213.468C169.989,245.535 144.003,271.53 111.929,271.53C79.85,271.53 53.87,245.535 53.87,213.468C53.87,181.406 79.849,155.406 111.929,155.406C144.003,155.406 169.989,181.406 169.989,213.468" style="fill:rgb(237,29,36);fill-rule:nonzero;"/>
    </g>
</svg>
